X:1
T:Title
L:1/8
Q:1/4=100
M:2/4
K:Eb
V:1 treble nm="Grand Piano"
V:1
 z2 GF | E2 ED | C2 AG | F2 FE | D2 E2 | F2 A2 | G4- | G4 | z2 ed | c2 cB | A2 AG | F2 FE | D2 G2 | %13
 E2 D2 | C4 | C2 E2 | D4 | D2 F2 | E4 | D2 G2 | F2 A2 | G2 F2 | E2 F2 | G4 | G4 | e2 d2 | c4 | %27
 B2 A2 | G4 | AG F2 | GF E2 | FE D2 | G2 F2 | E2 D2 | C4- | C4 | z2 C2 | E2 G2 | F4- | F4 | z2 D2 | %41
 F2 A2 | G4- | G4 | z2 G2 | =B2 d2 | c4- | c4 | z2 cB | A2 AG | F2 D2 | E2 D2 | C4- | C4 |] %54

